suite-common/icons/assets/icons/nonSuite.svg

<svg xmlns="http://www.w3.org/2000/svg" viewBox="0 0 22 17">
  <path fill-rule="evenodd" d="M7.579.073C6.833.145 5.77.435 5.038.765a8.55 8.55 0 0 0-4.95 6.552c-.089.611-.09 1.826-.001 2.398.439 2.851 2.155 5.201 4.698 6.437.615.299 1.07.465 1.776.65l.571.15 1.001.016c1.245.02 1.768-.022 2.426-.195a8.3 8.3 0 0 0 1.706-.639c.901-.442 1.591-.949 2.329-1.71 1.071-1.106 1.699-2.235 2.147-3.862.07-.251.114-.468.098-.482-.015-.015-.344-.038-.731-.053l-.703-.026-.037.142c-.021.078-.057.22-.08.316l-.043.174H11.92l.023-.317.022-.318-.672.025c-.37.014-.693.042-.718.063-.024.02-.056.152-.07.293l-.026.256-1.955-.01c-1.075-.005-1.965-.02-1.977-.033-.139-.139-.151-4.02-.013-4.159a86 86 0 0 1 1.977-.038l1.965-.026.025.253c.014.139.04.278.059.308.028.045.159.057.719.067l.685.012-.026-.314-.025-.315h3.332l.024.125c.013.069.048.21.079.312l.055.186h.715c.547 0 .719-.011.732-.047.024-.061-.242-1-.411-1.452-.489-1.309-1.417-2.598-2.552-3.547C12.761 1.016 11.242.344 9.753.128 9.291.061 8.028.029 7.579.073m3.21 1.765c1.496.549 2.785 1.554 3.592 2.8l.214.33-1.385.011c-.762.005-1.418.002-1.459-.008-.057-.014-.089-.079-.141-.285-.214-.847-.638-1.881-1.122-2.734-.083-.146-.142-.265-.131-.265s.206.068.432.151m-4.297.151a11 11 0 0 0-1.139 2.842l-.039.156H3.885c-1.172 0-1.428-.009-1.428-.05 0-.102.453-.747.835-1.188.259-.3.805-.755 1.31-1.092.575-.384 1.725-.927 1.973-.932.057-.001.045.038-.083.264m2.403.22c.339.45.635.952.867 1.471.199.443.431 1.106.431 1.229v.078H8.509c-1.003 0-1.693-.014-1.706-.035-.031-.049.181-.688.39-1.175a7.6 7.6 0 0 1 1.048-1.753c.279-.36.232-.374.654.185m9.815 3.097c-.11.021-.259.206-.287.356-.041.221.011.29 1.125 1.477.401.427.729.784.729.793 0 .008-1.498.026-3.328.039-1.83.012-3.836.033-4.457.045-1.13.023-1.13.023-1.237.112a.445.445 0 0 0 .013.687c.103.076.121.076 4.527.106 2.434.016 4.431.036 4.438.044.027.026-.098.173-.704.823-1.074 1.152-1.167 1.284-1.089 1.546.08.268.4.37.663.212.27-.162 2.638-2.678 2.784-2.959.098-.187-.035-.378-.948-1.363a68 68 0 0 0-1.117-1.164c-.532-.542-.724-.715-.825-.743a.44.44 0 0 0-.287-.011M5.08 6.478c-.118.472-.119 3.713 0 4.086.021.067-.03.069-1.648.069H1.763l-.042-.155c-.19-.7-.218-.954-.217-1.962 0-.895.008-1.018.088-1.407.049-.234.107-.494.13-.577l.041-.152h3.342zm-.096 5.654.346.023.141.495c.232.811.64 1.765 1.078 2.518.037.065.056.129.042.143-.04.04-.546-.151-1.091-.411-.844-.404-1.608-.966-2.18-1.603-.27-.3-.7-.869-.824-1.091l-.078-.137 1.11.02c.611.011 1.266.03 1.456.043m5.173.179c-.169.609-.571 1.486-.944 2.062-.284.437-.669.923-.719.907-.082-.025-.573-.672-.798-1.049-.344-.576-.815-1.662-.888-2.049l-.023-.119h3.44zm4.361-.187c.064.058-.501.811-.966 1.29a7 7 0 0 1-1.914 1.426c-.39.199-1.211.513-1.247.477-.012-.013.087-.218.22-.457.432-.775.823-1.762.998-2.516l.066-.287 1.413.026c.778.014 1.421.033 1.43.041"/>
</svg>

<svg xmlns="http://www.w3.org/2000/svg" viewBox="0 0 22 17"><path d="M7.579 0.073 C 6.833 0.145,5.770 0.435,5.038 0.765 C 2.374 1.966,0.506 4.439,0.088 7.317 C -0.001 7.928,-0.002 9.143,0.087 9.715 C 0.526 12.566,2.242 14.916,4.785 16.152 C 5.400 16.451,5.855 16.617,6.561 16.802 L 7.132 16.952 8.133 16.968 C 9.378 16.988,9.901 16.946,10.559 16.773 C 11.209 16.601,11.645 16.438,12.265 16.134 C 13.166 15.692,13.856 15.185,14.594 14.424 C 15.665 13.318,16.293 12.189,16.741 10.562 C 16.811 10.311,16.855 10.094,16.839 10.080 C 16.824 10.065,16.495 10.042,16.108 10.027 L 15.405 10.001 15.368 10.143 C 15.347 10.221,15.311 10.363,15.288 10.459 L 15.245 10.633 13.582 10.633 L 11.920 10.633 11.943 10.316 L 11.965 9.998 11.293 10.023 C 10.923 10.037,10.600 10.065,10.575 10.086 C 10.551 10.106,10.519 10.238,10.505 10.379 L 10.479 10.635 8.524 10.625 C 7.449 10.620,6.559 10.605,6.547 10.592 C 6.408 10.453,6.396 6.572,6.534 6.433 C 6.541 6.427,7.431 6.409,8.511 6.395 L 10.476 6.369 10.501 6.622 C 10.515 6.761,10.541 6.900,10.560 6.930 C 10.588 6.975,10.719 6.987,11.279 6.997 L 11.964 7.009 11.938 6.695 L 11.913 6.380 13.579 6.380 L 15.245 6.380 15.269 6.505 C 15.282 6.574,15.317 6.715,15.348 6.817 L 15.403 7.003 16.118 7.003 C 16.665 7.003,16.837 6.992,16.850 6.956 C 16.874 6.895,16.608 5.956,16.439 5.504 C 15.950 4.195,15.022 2.906,13.887 1.957 C 12.761 1.016,11.242 0.344,9.753 0.128 C 9.291 0.061,8.028 0.029,7.579 0.073 M10.789 1.838 C 12.285 2.387,13.574 3.392,14.381 4.638 L 14.595 4.968 13.210 4.979 C 12.448 4.984,11.792 4.981,11.751 4.971 C 11.694 4.957,11.662 4.892,11.610 4.686 C 11.396 3.839,10.972 2.805,10.488 1.952 C 10.405 1.806,10.346 1.687,10.357 1.687 C 10.368 1.687,10.563 1.755,10.789 1.838 M6.492 1.989 C 5.971 2.908,5.619 3.787,5.353 4.831 L 5.314 4.987 3.885 4.987 C 2.713 4.987,2.457 4.978,2.457 4.937 C 2.457 4.835,2.910 4.190,3.292 3.749 C 3.551 3.449,4.097 2.994,4.602 2.657 C 5.177 2.273,6.327 1.730,6.575 1.725 C 6.632 1.724,6.620 1.763,6.492 1.989 M8.895 2.209 C 9.234 2.659,9.530 3.161,9.762 3.680 C 9.961 4.123,10.193 4.786,10.193 4.909 L 10.193 4.987 8.509 4.987 C 7.506 4.987,6.816 4.973,6.803 4.952 C 6.772 4.903,6.984 4.264,7.193 3.777 C 7.465 3.143,7.772 2.630,8.241 2.024 C 8.520 1.664,8.473 1.650,8.895 2.209 M18.710 5.306 C 18.600 5.327,18.451 5.512,18.423 5.662 C 18.382 5.883,18.434 5.952,19.548 7.139 C 19.949 7.566,20.277 7.923,20.277 7.932 C 20.277 7.940,18.779 7.958,16.949 7.971 C 15.119 7.983,13.113 8.004,12.492 8.016 C 11.362 8.039,11.362 8.039,11.255 8.128 C 11.042 8.308,11.049 8.652,11.268 8.815 C 11.371 8.891,11.389 8.891,15.795 8.921 C 18.229 8.937,20.226 8.957,20.233 8.965 C 20.260 8.991,20.135 9.138,19.529 9.788 C 18.455 10.940,18.362 11.072,18.440 11.334 C 18.520 11.602,18.840 11.704,19.103 11.546 C 19.373 11.384,21.741 8.868,21.887 8.587 C 21.985 8.400,21.852 8.209,20.939 7.224 C 20.706 6.972,20.203 6.448,19.822 6.060 C 19.290 5.518,19.098 5.345,18.997 5.317 C 18.861 5.279,18.849 5.279,18.710 5.306 M5.080 6.478 C 4.962 6.950,4.961 10.191,5.080 10.564 C 5.101 10.631,5.050 10.633,3.432 10.633 L 1.763 10.633 1.721 10.478 C 1.531 9.778,1.503 9.524,1.504 8.516 C 1.504 7.621,1.512 7.498,1.592 7.109 C 1.641 6.875,1.699 6.615,1.722 6.532 L 1.763 6.380 3.434 6.380 L 5.105 6.380 5.080 6.478 M4.984 12.132 L 5.330 12.155 5.471 12.650 C 5.703 13.461,6.111 14.415,6.549 15.168 C 6.586 15.233,6.605 15.297,6.591 15.311 C 6.551 15.351,6.045 15.160,5.500 14.900 C 4.656 14.496,3.892 13.934,3.320 13.297 C 3.050 12.997,2.620 12.428,2.496 12.206 L 2.418 12.069 3.528 12.089 C 4.139 12.100,4.794 12.119,4.984 12.132 M10.157 12.311 C 9.988 12.920,9.586 13.797,9.213 14.373 C 8.929 14.810,8.544 15.296,8.494 15.280 C 8.412 15.255,7.921 14.608,7.696 14.231 C 7.352 13.655,6.881 12.569,6.808 12.182 L 6.785 12.063 8.505 12.063 L 10.225 12.063 10.157 12.311 M14.518 12.124 C 14.582 12.182,14.017 12.935,13.552 13.414 C 12.952 14.031,12.367 14.467,11.638 14.840 C 11.248 15.039,10.427 15.353,10.391 15.317 C 10.379 15.304,10.478 15.099,10.611 14.860 C 11.043 14.085,11.434 13.098,11.609 12.344 L 11.675 12.057 13.088 12.083 C 13.866 12.097,14.509 12.116,14.518 12.124 " stroke="none" fill-rule="evenodd" fill="black"></path></svg>
